X:6
T:Mrs Edmonton's Reel. Roose.0149
T:Lady Edmonton's Reel,aka. Roose.0149
T:Cumberland Reel,aka. Roose.0149
M:C|
L:1/8
Q:1/4=150
B:John Roose MS, 1850
Z:Village Music Project. Ian Hayden 2019
K:Bb
F|B2 bg fdcB|AFcF dFcF|B2 bg fdcB|B,BAc dBB:|
|:c|(BGF)E DEFD|ECCB cGGc|BGFE DEFD|B,BAc dBB:|

